X:1
T:Gud signe Norigs land
T:Gud signe Norigs land
T:Chr. Haslerud
T:A. Garborg
C:Chr. Haslerud
Z:A. Garborg
%%score [ 1 2 3 4 ]
L:1/8
Q:1/4=50
M:3/4
K:C
V:1 treble-8 nm="T1"
V:2 treble-8 nm="T2"
V:3 bass nm="B1"
V:4 bass nm="B2"
V:1
"^Langsomt" c2 d2 e2 | e3 d d2 | d2 e2 f2 | f3 e e2 | d2 e2 ^f2 | g4 z2 | e2 d2 c2 | c3 B B2 | %8
w: Gud sig- ne|No- rigs land,|kvar heim, kvar|dal og strand,|kvar lund og|lid.|Han lat det|al- dri døy;|
 f2 e2 d2 | d3 e e2 | g2 f2 e2 | a3 g f2 | e2 e2 d2 | c4 z2 |] %14
w: han ver- je|bygd og øy,|han ver- je|mann og møy|til æv- leg|tid.|
V:2
 c2 c2 c2 | B3 B B2 | B2 c2 B2 | c3 c c2 | B2 c2 c2 | B4 z2 | G2 G2 A2 | G3 G G2 | d2 c2 B2 | %9
w: Gud sig- ne|No- rigs land,|kvar heim, kvar|dal og strand,|kvar lund og|lid.|Han lat det|al- dri døy;|han ver- je|
 B3 B B2 | c2 B2 c2 | c3 c d2 | c2 B2 B2 | G4 z2 |] %14
w: bygd og øy,|han ver- je|mann og møy|til æv- leg|tid.|
V:3
 E,2 F,2 G,2 | G,3 G, G,2 | G,2 G,2 G,2 | G,3 G, G,2 | G,2 D,2 D,2 | D,4 z2 | C,2 D,2 E,2 | %7
w: Gud sig- ne|No- rigs land,|kvar heim, kvar|dal og strand,|kvar lund og|lid.|Han lat det|
 F,3 F, G,2 | G,2 G,2 G,2 | A,3 ^G, G,2 | =G,2 G,2 G,2 | F,3 G, A,2 | G,2 G,2 F,2 | E,4 z2 |] %14
w: al- dri døy;|han ver- je|bygd og øy,|han ver- je|mann og møy|til æv- leg|tid.|
V:4
 C,2 C,2 C,2 | G,,3 G,, G,,2 | F,2 E,2 D,2 | C,3 C, C,2 | D,2 D,2 D,2 | G,,4 z2 | C,2 B,,2 C,2 | %7
w: Gud sig- ne|No- rigs land,|kvar heim, kvar|dal og strand,|kvar lund og|lid.|Han lat det|
 D,3 D, D,2 | %8
w: al- dri døy;|
"_2. Me fekk det høgt og fritt, me fekk det vænt og vidt med hav og fjell.\nDet stend so trygt og godt, det stend so reint og blaatt ratt som eit gudeslott med solskinstjeld.\n\n3. I kjærleik varm og mild me legg vaar vilje til, daa veks det fram.\nDaa fær det bløma blidt, daa fær det spyrjast vidt og alltid standa fritt for naud og skam.\n\n4. Her stig det stort og blaat, vaart fagre heimlands slott med tind og taarn.\nOg som det ervdest ned, alt fagrar, led for led, det byggjast skal i fred aat vaare born." B,,2 C,2 G,2 | %9
w: han ver- je|
 F,3 E, E,2 | E,2 D,2 C,2 | F,3 E, F,2 | G,2 G,,2 G,,2 | C,4 z2 |] %14
w: bygd og øy,|han ver- je|mann og møy|til æv- leg|tid.|

